X: 1
T: String Quartet in C Major opus 54 no 2 mvt 3
C: Franz Joseph Haydn
%%abc-version 2.0
%%abcx-abcm2ps-target-version 5.9.1 (29 Sep 2008)
%%abc-creator hum2abc beta
%%abcx-conversion-date 2021/02/14 14:38:16
%%abc-copyright Copyright (c) 1994, 2000 Center for Computer Assisted Research in the Humanities
%%abc-edited-by Walter Hewlett
%%abcx-initial-encoding-date 1994/07/25
%%gracespace 0 6 6
%%humdrum-veritas 4129506158
%%humdrum-veritas-data 3427078747
%%linebreak <none>
%%barnumbers 0
L: 1/4
M: 3/4
N: Derived from op54n2-03.krn
Q: "Menuetto: Allegretto"
%%staves [1 2 3 4]
V: 1 clef=treble
V: 2 clef=treble
V: 3 clef=alto
V: 4 clef=bass
K: C
[V:1]E x2[I:setbarnb1] |
[V:2]z x2|
[V:3]G, x2|
[V:4]z x2|
[V:1]E .C/z/ .G |
[V:2]z z .E |
[V:3]G, .E,/z/ z |
[V:4]C, z z |
[V:1]G .E/z/ .c |
[V:2]E .C/z/ .^F |
[V:3]C, z .D |
[V:4]C, z .A, |
[V:1]!sfz!c2 .B |
[V:2]!sfz!^F2 .G |
[V:3]!sfz!D3 |
[V:4]!sfz!A,2 .G, |
[V:1]A .G ._B |
[V:2].^F .G .E |
[V:3].D .D .C |
[V:4].C .B, .G, |
[V:1]!sfz!_B2 A |
[V:2]!sfz!E2 =F |
[V:3]!sfz!C3 |
[V:4]!sfz!G,2 F, |
[V:1].G .F .A |
[V:2].E .F .C |
[V:3].C .C .A, |
[V:4]._B, .A, .F, |
[V:1]C2 D/B,/ |
[V:2]E2 F/D/ |
[V:3]G,2 F, |
[V:4]G,,3 |
[V:1].C z |
[V:2].C z |
[V:3].E, z |
[V:4]C,, .C, |
[V:1].D x2[I:setbarnb9] |
[V:2].B, x2|
[V:3]z x2|
[V:4]z x2|
[V:1]D .G/z/ .^F |
[V:2]B, .G,/z/ .C |
[V:3]G, z .A, |
[V:4]G,, z z |
[V:1]^F .c/z/ .B |
[V:2]C .A,/z/ .G |
[V:3]A, .^F,/z/ .G |
[V:4]G,, z z |
[V:1]B e .e |
[V:2]G B .B |
[V:3]G, G .G |
[V:4]G,, z z |
[V:1]d2 .c |
[V:2]A2 .G |
[V:3]^F2 .E |
[V:4]z3 |
[V:1]c2 .B |
[V:2]G2 .^F |
[V:3]E2 .D |
[V:4]z3 |
[V:1]A .G .g |
[V:2].E .D .G |
[V:3].C .B, .D |
[V:4]z z .B, |
[V:1]!sfz!g2 .^f |
[V:2]!sfz!G2 .^F |
[V:3]!sfz!D2 .C |
[V:4]!sfz!B,2 .A, |
[V:1].e .d .^c |
[V:2].E .D ._B |
[V:3].B, .A, .E |
[V:4].G, .^F, .G, |
[V:1]!sfz!^c2 .d |
[V:2]!sfz!_B2 .A |
[V:3]!sfz!E2 .^F |
[V:4]!sfz!G,2 .^F, |
[V:1].=c .B .A |
[V:2].G .^F .E |
[V:3].G z .C |
[V:4].E, .D, .C, |
[V:1]G2 A/^F/ |
[V:2]D2 C |
[V:3]B,2 ^F,/A,/ |
[V:4]D,3 |
[V:1].G z .B |
[V:2].B, z .D |
[V:3].G, z z |
[V:4].G, .G,, z |
[V:1]B .G/z/ .d |
[V:2]D .B,/z/ .B |
[V:3]G, z z |
[V:4]G,, z z |
[V:1]d .B/z/ .=f |
[V:2]B .G/z/ .d |
[V:3]G, z z |
[V:4]G,, z z |
[V:1]f- f/>.g/ a3//g// |
[V:2]d- d/>.e/ f3//e// |
[V:3]z3 |
[V:4]z3 |
[V:1].f z .E |
[V:2].d z z |
[V:3]z z .G, |
[V:4]z3 |
[V:1]E .C/z/ .G |
[V:2]z z .E |
[V:3]G, .E,/z/ z |
[V:4]C, z z |
[V:1]G .E/z/ .c |
[V:2]E .C/z/ .^F |
[V:3]C, z .D |
[V:4]C, z .A, |
[V:1]!sfz!c2 .B |
[V:2]!sfz!^F2 .G |
[V:3]!sfz!D3 |
[V:4]!sfz!A,2 .G, |
[V:1].A .G ._B |
[V:2].^F .G .E |
[V:3].D .D .C |
[V:4].C .B, .G, |
[V:1]!sfz!_B2 .A |
[V:2]!sfz!E2 .=F |
[V:3]!sfz!C3 |
[V:4]!sfz!G,2 .F, |
[V:1]G .F .A |
[V:2].E .F .C |
[V:3].C .C .A, |
[V:4]._B, .A, .F, |
[V:1]C2 D/B,/ |
[V:2]E2 F/D/ |
[V:3]G,2 F, |
[V:4]G,,3 |
[V:1]C z .c' |
[V:2].C z .^f |
[V:3].E, z .^d |
[V:4].C, z [K:clef=tenor] .A |
[V:1]c'2 .b |
[V:2]^f2 .g |
[V:3]^d2 .e |
[V:4]A2 .G |
[V:1].a .g ._b |
[V:2].^f .e .e |
[V:3].B .B .^c |
[V:4].^D .E .G |
[V:1]_b2 .a |
[V:2]e2 .=f |
[V:3]^c2 .d |
[V:4]G2 .=F [K:clef=bass] |
[V:1].g .f .a |
[V:2].e .d .d |
[V:3].A .A .F |
[V:4].^C .D .F, |
[V:1]=c2 d/B/ |
[V:2]E2 F/D/ |
[V:3]G2 F |
[V:4]G,2 .G,, |
[V:1].c/.d/ ._e/.=e/ .f/.^f/ |
[V:2].E z z |
[V:3].E z z |
[V:4].=C, z z |
[V:1].g z .B |
[V:2]z z .F |
[V:3]z z .D |
[V:4]z2 .G, |
[V:1].c/.e/ .f/.^f/ .g/.^g/ |
[V:2].E z z |
[V:3].E z z |
[V:4].C, z z |
[V:1].a z .B |
[V:2]z z .D |
[V:3]z z .F, |
[V:4]z2 .G,, |
[V:1].c/.e/ .f/.g/ .a/.b/ |
[V:2].C/.E/ .F/.G/ .A/.B/ |
[V:3].C,/.E,/ .F,/.G,/ .A,/.B,/ |
[V:4].C,,/.E,,/ .F,,/.G,,/ .A,,/.B,,/ |
[V:1].c'/.d'/ .e'/.f'/ .g'/.^g'/ |
[V:2].c/.d/ .e/.f/ .g/.^g/ |
[V:3].C/.D/ .E/.F/ .G/.^G/ |
[V:4].C,/.D,/ .E,/.F,/ .G,/.^G,/ |
[V:1].a' .b' .c'' |
[V:2].a .b .c' |
[V:3].A .B .c |
[V:4].A, .B, .C |
[V:1].=G, [cE] [BD] |
[V:2].=G, [cE] [BD] |
[V:3].=G, .[GG,] [FG,] |
[V:4].=G,, .G,, .G,, |
[V:1][cE] z |
[V:2][cE] z |
[V:3][EG,] z |
[V:4].C,, z |
[V:1][K:Eb] .C x2[I:setbarnb47] |
[V:2][K:Eb] .C x2|
[V:3][K:Eb] .C x2|
[V:4][K:Eb] .C, x2|
[V:1]C .G,/.C/ .E |
[V:2]C .G,/.C/ .E |
[V:3]C .G,/.C/ E |
[V:4]C, .G,,/.C,/ E, |
[V:1]E .C/.E/ .G |
[V:2]E .C/.E/ .G |
[V:3]E .C/.E/ .G |
[V:4]E, .C,/.E,/ .G, |
[V:1]G E/G/ =B/c/ |
[V:2]G E/G/ =B/c/ |
[V:3]G E/G/ =B/c/ |
[V:4]G, E,/G,/ =B,/C/ |
[V:1]G z .a |
[V:2]G z .e |
[V:3]G z .=B |
[V:4]G, z z |
[V:1]a g .g |
[V:2]e3- |
[V:3]=B3- |
[V:4]z3 |
[V:1]g f .a |
[V:2]e2 .e |
[V:3]B2 .=B |
[V:4]z3 |
[V:1]a g .g |
[V:2]e3- |
[V:3]=B3- |
[V:4]z3 |
[V:1]g f .f |
[V:2]e2 .d |
[V:3]B2 .G |
[V:4]z z =B, |
[V:1]f e .e |
[V:2]d c .c |
[V:3].G .c .^F |
[V:4].C .A, .^F, |
[V:1].d z |
[V:2].=B z |
[V:3].G z |
[V:4].G, G,, |
[V:1]=e x2[I:setbarnb57] |
[V:2].B x2|
[V:3].G x2|
[V:4]._D x2|
[V:1]=e3- |
[V:2]B c .c |
[V:3]G3- |
[V:4]_D C .C |
[V:1]e2 .=e |
[V:2]c _d ._D |
[V:3]G2 .G |
[V:4]C B, .B, |
[V:1]=e f .f |
[V:2]_D C .C |
[V:3]G F .F |
[V:4]B, A, .A, |
[V:1].f z .^f |
[V:2].C z .c |
[V:3].F z .=A |
[V:4].A, z .E |
[V:1]^f3- |
[V:2]c .=d .d |
[V:3]=A3- |
[V:4]E =D .D |
[V:1]f2 .^f |
[V:2]d e E |
[V:3]A2 .=A |
[V:4]D C .C |
[V:1]^f g .g |
[V:2]E D .D |
[V:3]=A G .G |
[V:4]C =B, .B, |
[V:1].g z .a |
[V:2].D z .e |
[V:3].G z .=B |
[V:4].=B, z z |
[V:1]a g .g |
[V:2]e3- |
[V:3]=B3- |
[V:4]z3 |
[V:1]g f .a |
[V:2]e2 .e |
[V:3]B2 .=B |
[V:4]z z .F |
[V:1]a g .g |
[V:2]e3- |
[V:3]=B3- |
[V:4]F G .G |
[V:1]g f .a |
[V:2]e2 .d |
[V:3]B2 .=B |
[V:4]G A .F |
[V:1]a g .g |
[V:2]d e .e |
[V:3]=B c .c |
[V:4]F E .E |
[V:1]g ^f .f |
[V:2]e e .e |
[V:3]c c .c |
[V:4]E A, .A, |
[V:1].g .e !trill!d |
[V:2].e .c !trill!=B |
[V:3].c .G G |
[V:4]G,3 |
[V:1].c z :|]
[V:2].c z :|]
[V:3].C z :|]
[V:4].C, z :|]
[V:1][K:C]
[V:2] [K:C]
[V:3] [K:C]
[V:4] [K:C]

